X: 1
T: Black Rocks of Glencoe  v.2
P: piffero secondo a0020
O: Greg Rice
%R: march
F: http://ancients.sudburymuster.org/mus/ssp/pdf/closingF.pdf
Z: 2019 John Chambers <jc:trillian.mit.edu>
M: 2/4
L: 1/16
K: Em
BA |\
G2E2 B2Ad | d2Bc G2 ef | e2B2 c2BA | B2c2 d2BA |\
E2G2 B2cd | d2Bc F2 ef | d2cB B2GF | F3E  E2  :|
|: Bd |\
B2BB d2cc | d2B2 E2DE | D2EG edcA | BAGA B2Bd |\
B2BB d2Bd | e2d2 F2EG | gfed edcA | BAGA E2  :|
